X:1
T:Title
%%score { ( 1 3 ) | ( 2 4 ) }
L:1/8
Q:1/4=100
M:4/4
K:A
V:1 treble nm="Grand Piano"
V:3 treble 
V:2 bass 
V:4 bass 
V:1
 [CE]2 [CE]>[DF] [CE]2 [EA]>B | c2 c>c c4 | B2 B>B B2 [FA]>[DF] | [CE]6 [CE]2 | %4
w: R.~A.~Glenn * * * * *||||
 [CE]2 [CE]2 [DF]>[CE] [CE]>[CE] | [EA]2 B2 c4 | B2 B>B B2 c>B |[M:3/4] [A,CA]6 |[M:1/4] c>d | %9
w: |||||
[M:4/4] e4 z4 | [FA]4 z4 | [Ec]>[Ec] [Ec]>[Ec] [Fd]2 [Ec]2 | B2 B>c B2 c>d | e4 z4 | [Fd]4 z4 | %15
w: ||||||
 c3 d c2 B2 | [CA]6 z2 |] %17
w: ||
V:2
 [A,,A,]2 [A,,A,]>[A,,A,] [A,,A,]2 [C,A,]>[E,G,E] | [A,E]2 [A,E]>[A,E] [A,E]4 | %2
 [E,G,E]2 [E,G,E]>[E,G,E] [E,G,E]2 [A,,A,]>[A,,A,] | [A,,A,]6 [A,,A,]2 | %4
 [A,,A,]2 [A,,A,]2 [A,,A,]>[A,,A,] [A,,A,]>[A,,A,] | [C,A,]2 [E,G,E]2 [A,E]4 | %6
 [E,G,E]2 [E,G,E]>[E,G,E] [E,G,E]2 [E,A,E]>[E,G,D] |[M:3/4] A,,6 |[M:1/4][K:treble] A>B | %9
[M:4/4] A->[A,A-] [A,A]2 [A,E]2 C>D | D,>D, D,2 [D,A,D]2 [C,A,]>[B,,G,] | %11
 [A,,A,]>[A,,A,] [A,,A,]>[A,,A,] [A,,A,]2 [A,,A,]2 | %12
 [E,G,E]2 [E,G,E]>[E,A,E] [E,G,E]2[K:treble] A>B | A->[A,A-] [A,A]2 [A,E]2 G>A | %14
 [D,A,]>D, D,2 [D,A,D]2 [D,A,]>[D,A,] | [E,A,E]3 [E,B,E] [E,A,E]2 [E,G,D]2 | [A,,A,]6 z2 |] %17
V:3
 x8 | x8 | x8 | x8 | x8 | x8 | x8 |[M:3/4] x6 |[M:1/4] x2 |[M:4/4] z z/ C/ C2 c2 A>B | %10
 D>D D2 F2 [EA]>[EB] | x8 | x8 | z z/ C/ C2 c2 B>c | z z/ A,/ A,2 F2 [FA]>[FB] | x8 | x8 |] %17
V:4
 x8 | x8 | x8 | x8 | x8 | x8 | x8 |[M:3/4] x6 |[M:1/4][K:treble] x2 |[M:4/4] [A,C]2 z2 z4 | x8 | %11
 x8 | x6[K:treble] x2 | [A,C]2 z2 z4 | x8 | x8 | x8 |] %17

